icons/lines/align-bottom.svg

<svg xmlns="http://www.w3.org/2000/svg" width="24" height="24" viewBox="0 0 24 24" fill="none" stroke="currentColor" stroke-width="2" stroke-linecap="round" stroke-linejoin="round" >
  <path d="M19.2598 5.10001V16.9C19.2598 18.4 18.6198 19 17.0298 19H15.9898C14.3998 19 13.7598 18.4 13.7598 16.9V5.10001"/>
  <path d="M5.25977 5.10001V11.9C5.25977 13.4 5.89977 14 7.48977 14H8.52977C10.1198 14 10.7598 13.4 10.7598 11.9V5.10001"/>
  <path d="M2 5H22"/>
  </svg>

<svg xmlns="http://www.w3.org/2000/svg" width="24" height="24" viewBox="0 0 24 24" fill="none" stroke="currentColor" stroke-width="2" stroke-linecap="round" stroke-linejoin="round">
  <path d="M19.26 5.1v11.8c0 1.5-.64 2.1-2.23 2.1h-1.04c-1.59 0-2.23-.6-2.23-2.1V5.1" />
  <path d="M2 5h20" />
  <path d="M5.26 5.1v6.8c0 1.5.64 2.1 2.23 2.1h1.04c1.59 0 2.23-.6 2.23-2.1V5.1" />
</svg>
